app/webroot/img/save.svg

<svg xmlns="http://www.w3.org/2000/svg" width="512" height="512" viewBox="0 0 512 512"><path d="M285.666 102.333h43v77.667h-43v-77.667zm97.334-52.333h-327v412h400v-339l-73-73zm-232.5 30h203.5v122h-203.5v-122zm247.833 349.332h-284.666v-159.666h284.666v159.666zm-29.833-112.832h-225v-20h225v20zm0 23h-225v20h225v-20zm0 43h-225v20h225v-20z"/></svg>

<?xml version="1.0" encoding="utf-8"?>

<!-- The icon can be used freely in both personal and commercial projects with no attribution required, but always appreciated. 
You may NOT sub-license, resell, rent, redistribute or otherwise transfer the icon without express written permission from iconmonstr.com -->

<!DOCTYPE svg PUBLIC "-//W3C//DTD SVG 1.1//EN" "http://www.w3.org/Graphics/SVG/1.1/DTD/svg11.dtd">
<svg version="1.1" xmlns="http://www.w3.org/2000/svg" xmlns:xlink="http://www.w3.org/1999/xlink" x="0px" y="0px"
	 width="512px" height="512px" viewBox="0 0 512 512" enable-background="new 0 0 512 512" xml:space="preserve">
<path id="save-2-icon" d="M285.666,102.333h43V180h-43V102.333z M383,50H56v412h400V123L383,50z M150.5,80H354v122H150.5V80z
	 M398.333,429.332H113.667V269.666h284.666V429.332z M368.5,316.5h-225v-20h225V316.5z M368.5,339.5h-225v20h225V339.5z
	 M368.5,382.5h-225v20h225V382.5z"/>
</svg>
